**kern	**kern	**kern
*staff3	*staff2	*staff1
*tb48	*tb48	*tb48
=1-	=1-	=1-
*clefF4	*clefG2	*clefG2
*k[b-]	*k[b-]	*k[b-]
*met(c)	*met(c)	*met(c)
*M4/4	*M4/4	*M4/4
[1AA/ [1A/	2r	2r
.	4r	4r
.	8f/L 8a/L	8a/L
.	8d/J 8f/J	8f/J
=2	=2	=2
1AA\_ 1A\_	4c#/ 4e/	4e/
.	8f/L 8a/L	8a/
.	8d/J 8f/J	8f/
.	4c#/ 4e/	4e/
.	8f/L 8a/L	8a/
.	8dd/J	8dd\
=3	=3	=3
4AA\] 4A\]	2f/ 2a/ 2dd/	2dd\
4AA/	.	.
4A\	4e/ 4a/ 4cc#/	4cc#\
4GG/ 4G/	4c#/ 4e/ 4a/	4a/
=4	=4	=4
*	*^	*
4FF/ 4F/	2.b-/	4d\ 4f\	2.b-\
4EE/ 4E/	.	4g\	.
4DD/ 4D/	.	4f\	.
8EE/L	4b-/	8g\L	4b-\
8DD/J	.	8f\J	.
*	*v	*v	*
=5	=5	=5
!!linebreak:original
*	*^	*
4CC#/	4e\	2.a/	4a/
4AA/	4c#\	.	8g/
.	.	.	8a/
4D\	4d\	.	4f#/
*	*v	*v	*
4r	8b-\L 8dd\L	8.dd\L
.	8g\J 8b-\J	.
.	.	16b-\JJ
=6	=6	=6
1DD/ 1D/	4f#/ 4a/	4a/
.	8b-\L 8dd\L	8.dd\L
.	8g\J 8b-\J	.
.	.	16b-\JJ
.	4f#/ 4a/	4a/
.	8b-\L 8dd\L	8dd\L
.	8gg\J	8gg\J
=7	=7	=7
4r	2b-\ 2dd\ 2gg\	2gg\
4DD/ 4D/	.	.
4D\ 4d\	4a\ 4ff#\	4ff#\
4C\ 4c\	4f#/ 4dd/	4dd\
=8	=8	=8
*	*^	*
8Bn\	4dd/ 4ff/	2g\	[2ffn\
4C\ 4c\	.	.	.
.	4cc/	.	.
2D\ 2G\ 2d\	.	.	.
*	*v	*v	*
.	2f/ 2bn/	8ff\L]
.	.	8dd\J
.	.	8cc\L
8r	.	8bn\J
=9	=9	=9
!!linebreak:original
2.C\ 2.c\	4f/ 4a/ 4cc/	[2cc\
.	4f/ 4a/	.
.	4e/ 4g/	8cc'\L]
.	.	8a\J
4C\ 4B-\	4c/ 4e/	8b-/L
.	.	8g/J
=10	=10	=10
2.FF/ 2.F/	4A/ 4f/	4f/
.	8B-/L 8d/L	4r
.	8A/J 8c/J	.
.	4A/ 4c/	4r
4F\	4f/ 4a/	4a/
=11	=11	=11
4E\	4g/ 4a/	4a/
4D\ 4d\	4f/ 4b-/	8b-\
.	.	8a/
4C\ 4c\	4e/ 4f/ 4a/	4a/
4BB-\ 4B-\	4d/ 4f/ 4b-/	4b-\
=12	=12	=12
4AA\ 4A\	4c/ 4f/ 4cc/	(4.cc\
4C/	4B-/ 4e/	.
.	.	8a/)
*	*^	*
4D\	2f/ 2g/	(4A\	4f/
4AA/	.	4c#\)	4r
*	*v	*v	*
=13	=13	=13
!!linebreak:original
*	*^	*
4BB-/	4f/	4d\	4f/
*	*v	*v	*
4AA/	4c/ 4e-/	8g-/
.	.	8f/
4BB-/	4B-/ 4d/	4f/
4AA/	4c/ 4e-/	8g-/
.	.	8f/
=14	=14	=14
*^	*	*
4r	1BB-/	4B-/ 4d/	4f/
(4A/ 4c/	.	8g-/L 8ee-/L	4r
.	.	8dd/	.
(2B-/	.	8f/J 8dd/J	2r
.	.	8c/	.
.	.	4c/ 4en/	.
*v	*v	*	*
=15	=15	=15
4BB-\) 4B-\	4d/ 4f/	4r
4AA\ 4A\	4d/ 4f#/ 4a/	4a/
4GG/ 4G/	4d/ 4g/ 4b-/	4b-\
4FF#/ 4F#/	4d/ 4a/	4a/
=16	=16	=16
4GG/ 4G/	4d/ 4g/ 4b-/	4b-\
4FFn/ 4F/	4d/ 4g/ 4bn/	8.bn\
.	.	16b\
4EE/ 4E/	4c/ 4g/ 4cc/	4cc\
4AA\ 4A\	4e/ 4g/ 4cc#/	8.cc#\
.	.	16a/
=17	=17	=17
!!linebreak:original
2DD/ 2D/	2f/ 2a/ 2dd/	(8dd\L
.	.	8ee\
.	.	8ff\
.	.	8ee\J
4r	4r	8dd\L
.	.	8cc#\
4EE/ 4E/	4d/ 4g/ 4b-/	8dd\
.	.	8b-\J
=18	=18	=18
4FF/ 4F/	4d/ 4a/	8a/L
.	.	8g#/J)
4BB-\ 4G\	4d/	8a/L
.	.	8gn/J
*^	*	*
4A/	2AA\	4d/	4.f/
4G/	.	4c#/	.
.	.	.	8e/
*v	*v	*	*
=19	=19	=19
4D\ 4F\	4d/	4d/
4r	4r	4r
[2AA\ [2A\	4r	2r
.	8.f/L 8.a/L	.
.	16d/JJ 16f/JJ	.
=20	=20	=20
2AA\] 2A\]	4c#/ 4e/	1r
.	4r	.
[2AA\ [2A\	4r	.
.	8.f/L 8.a/L	.
.	16d/JJ 16f/JJ	.
=21	=21	=21
!!linebreak:original
1AA/_ 1A/_	4c#/ 4e/	2r
.	4r	.
.	4r	4r
.	8.f/L 8.a/L	8.a/L
.	16d/JJ 16f/JJ	16f/JJ
=22	=22	=22
1AA/] 1A/]	4c#/ 4e/	4e/
.	8.f/L 8.a/L	8.a/L
.	16d/JJ 16f/JJ	16f/JJ
.	4c#/ 4e/	4e/
.	8f/L 8a/L	8a\L
.	8dd/J	8dd\J
=23	=23	=23
4r	2f/ 2a/ 2dd/	2dd\
4AA/	.	.
4A\	4e/ 4cc#/	4cc#\
4AA/	4c#/ 4a/	4a/
=24	=24	=24
*	*^	*
(4GG/	2.b-/	4d\	2.b-\
4FF/) 4F/	.	4a\	.
4EE/ 4E/	.	4g\	.
4DD/ 4D/	4b-/	4f\	4b-\
*	*v	*v	*
=25	=25	=25
!!linebreak:original
*	*^	*
4CC#/ 4C#/	4e\	2.a/	4.a/
4AA/	4c#\	.	.
.	.	.	8g/
([2DD/ [2D/	4d\	.	4f#/
*	*v	*v	*
.	8.b-\L 8.dd\L	8.dd\L
.	16g\JJ 16b-\JJ	16b-\JJ
=26	=26	=26
1DD/_) 1D/_	4f#/ 4a/	4a/
.	8b-\L 8dd\L	8dd\
.	8g\J 8b-\J	8b-\
.	4f#/ 4a/	4a/
.	8b-\L 8dd\L	8dd\L
.	8gg\J	8gg\J
=27	=27	=27
4DD/] 4D/]	2b-\ 2dd\ 2gg\	2gg\
4DD/ 4D/	.	.
4D\ 4d\	4a\ 4ff#\	4ff#\
4C\ 4c\	4f#/ 4dd/	4dd\
=28	=28	=28
8AA'/ 8BB-'/ 8C'/	2g/ 2ffn/	[2ffn\
4C\ 4c\	.	.
2D\ 2d\	.	.
.	4dd\	8ff\L]
.	.	8dd\J
.	4cc\	8cc\L
8r	.	8bn\J
=29	=29	=29
!!linebreak:original
*^	*	*
2.c/	1C/	(4f/ 4a/ 4cc/	[2cc\
.	.	4f/) 4a/	.
.	.	4e/ 4g/	8cc'\L]
.	.	.	8a\J
4B-/	.	4c/ 4e/	8b-/L
.	.	.	8g/J
=30	=30	=30	=30
2.FF\	4A/	4c/ 4f/	4f/
.	8B-/L 8d/L	4r	4r
.	8A/J 8c/J	.	.
.	4A/ 4c/	4r	4r
*v	*v	*	*
4F\ 4f\	4a/	4a/
=31	=31	=31
4E\ 4e\	4g/ 4a/	4a/
4D\ 4d\	4f/ 4b-/	8b-/L
.	.	8a/J
4C\ 4c\	4e/ 4a/	4a/
4BB-\ 4B-\	4d/ 4f/	8a/
.	.	8b-/
=32	=32	=32
!!linebreak:original
4AA\ 4A\	4c/ 4f/	(4.cc\
4C\ 4G\	4B-/ 4e/	.
.	.	8a/)
4D\ 4F\	4A/ 4f/	4f/
4AA/	4c/ 4e-/	8.g-/L
.	.	16f/JJ
=33	=33	=33
4BB-/	4B-/ 4d/	4f/
4AA/	4c/ 4e-/	8.g-/L
.	.	16f/JJ
4BB-/	4B-/ 4d/	4f/
4A\ 4c\	4g-\ 4ee-\	8ee-\
.	.	8dd\
=34	=34	=34
2.BB-\ 2.B-\	4f/ 4dd/	4dd\
.	(4.c#/ 4.e/	4r
.	.	4r
.	4d/) 4f/	.
4C\ 4c\	.	4r
.	8r	.
=35	=35	=35
4BB-\ 4B-\	4d/ 4g/	4r
4AA\ 4A\	4f#/ 4a/	4a/
4GG/ 4G/	4g/ 4b-/	4b-\
4FF#/ 4F#/	4d/ 4a/	4a/
=36	=36	=36
!!linebreak:original
(4GG/ 4G/	6d/ 6b-/	4b-\
.	6a/	.
4FFn/ 4Fn/	.	4bn\
.	6d/ 6a/ 6b-/	.
4EE-/ 4E-/	4c/ 4g/ 4cc/	4cc\
4EEn/) 4En/	4g/ 4a/ 4cc#/	8cc#\
.	.	8a/
=37	=37	=37
2DD/ 2D/	2f/ 2a/ 2dd/	(8dd\L
.	.	8ee\
.	.	8ff\
.	.	8ee\J
4r	4r	8dd\L
.	.	8cc#\
4EE/ 4E/	4d/ 4g/ 4b-/	8dd\
.	.	8b-\J
=38	=38	=38
4FF/ 4F/	4d/ 4a/	8a/L
.	.	8g#/J)
4BB-/	4d/	8a/L
.	.	8gn/J
2AA/	4A/ 4d/	4.f/
.	4E/ 4c#/	.
.	.	8e/
=39	=39	=39
!!linebreak:original
2DD/ 2D/	4F/ 4d/	4d/
.	4r	4r
[2AA\ [2A\	4r	2r
.	8.f/L 8.a/L	.
.	16d/JJ 16f/JJ	.
=40	=40	=40
2AA\] 2A\]	4c#/ 4e/	1r
.	4r	.
[2AA\ [2A\	4r	.
.	8.f/L 8.a/L	.
.	16d/JJ 16f/JJ	.
=41	=41	=41
2AA\] 2A\]	4c#/ 4e/	1r
.	4r	.
([2DD/ [2D/	4r	.
.	8.B-/L 8.d/L	.
.	16G/JJ 16B-/JJ	.
=42	=42	=42
1DD/]) 1D/]	1F#/ 1A/	1r
==	==	==
*-	*-	*-
